X:1
T:Amanda, LM
T:Amanda, LM
T:Attributed to Justin Morgan, 1787
T:Public Domain Courtesy of the Cyber Hymnal™
C:Attributed to Justin Morgan, 1787
Z:Public Domain
Z:Courtesy of the Cyber Hymnal™
%%score ( 1 2 ) ( 3 4 )
L:1/8
Q:1/4=170
M:3/2
K:C
V:1 treble 
V:2 treble 
V:3 bass 
V:4 bass 
V:1
 [EA]4 | [Ee]8 [Gd]4 | (c3 d [Ae]4) (3([Gc]2 B2 [EA]2) | ([CG]3 [DA] E4) [E^G]4 |[M:2/2] [EA]8 | %5
 [Ae]4 [Ae]2 [Ae]2 | ([Gg]3 [Aa] [Gg]2) [Ge]2 | [Ac]4 [Ad]4 x2 | [Ge]8 | G4 A2 [Ac]2 | %10
 [GB]4 A2 G2 | (A3 cdB) G2 | G8 | [EG]4 [Ec]2 A2 | (e>fed [Ee]2) (dc) | [EB]6 [E^G]2 | [EA]8 |] %17
V:2
 x4 | x12 | E4 x8 | x4 E4 x4 |[M:2/2] x8 | x8 | x8 | x10 | x8 | G4 A2 x2 | x4 E4 | A6 G2 | G8 | %13
 x6 A2 | A3 x3/2 C2 x3/2 | x8 | x8 |] %17
V:3
 A,4 | [A,C]8 [^G,B,]4 | [A,E]8 [A,,E]4 | (C3 D E4) (D2 B,2) |[M:2/2] [A,,A,]8 | %5
 [A,C]4 [A,C]2 [A,C]2 | D4 [E,E]2 [G,C]2 | [G,C]4 (G,2 A,4) | [E,B,]8 | [E,E]4 (CB,) [C,A,]2 | %10
 [E,G,]4 (B,2 E,2) | (D3 EDB,) [D,G,]2 | [E,B,]8 | [E,B,]4 [C,A,]2 C2 | ([E,B,]3 [F,A,] G,2) A,2 | %15
 (E>FED C2) [E,B,]2 | [A,,A,]8 |] %17
V:4
 A,4 | x12 | x12 | C,8 E,4 |[M:2/2] x8 | x8 | G,3 F, x4 | x6 F,2 x2 | x8 | x4 D,2 x2 | x4 G,4 | %11
 D,6 x2 | x8 | x6 (C,D,) | x4 G,2 A,2 | E,6 x2 | x8 |] %17

